X: 22627
T: Laihian Polkka
R: polka
M: 2/4
K: Bminor
|:Bd/f/ Bd/f/|fg/b/ fg/b/|ff/g/ f/e/d/c/|d/e/d/c/ Bf/d/|
Bd/f/ Bd/f/|fg/b/ fg/b/|ff/g/ f/e/d/c/|1 Bf Be:|2 Bf Bd||
|:b>a gf/g/|aA ce|a>g fe/f/|ad fa|
b>a gf/g/|aA ce|a>g f/g/e/c/|1 d2 e/f/g/a/:|2 d2 d2||

